X: 1
T: Up da Stroods da Sailor Goes
O: trad Shetland
R: reel
Z: 2013 John Chambers <jc:trillian.mit.edu>
M: C|
L: 1/8
K: Bm
|: B2B2 dBBA | BAB2 dBAF | B2dB  ABde | faef dBAF :|
[| D2ag fede | f2af f2af | f^gag fede | faef dBAF |]
